dist/img/messenger.svg

<svg width="18" height="18" viewBox="0 0 18 18" xmlns="http://www.w3.org/2000/svg">
<path d="M8.84375 0.3125C4.13721 0.3125 0.3125 4.13721 0.3125 8.84375C0.3125 10.5459 0.861084 12.1045 1.71729 13.4375L0.250977 17.5339L4.81397 16.2471C6.02393 16.9084 7.36719 17.375 8.84375 17.375C13.5503 17.375 17.375 13.5503 17.375 8.84375C17.375 4.13721 13.5503 0.3125 8.84375 0.3125ZM8.84375 1.625C12.8376 1.625 16.0625 4.84985 16.0625 8.84375C16.0625 12.8376 12.8376 16.0625 8.84375 16.0625C7.47485 16.0625 6.2085 15.678 5.11133 15.0166L4.87036 14.8679L2.34277 15.5754L3.16309 13.2991L2.96313 13.0222C2.12231 11.8379 1.625 10.4023 1.625 8.84375C1.625 4.84985 4.84985 1.625 8.84375 1.625ZM5.64453 4.25C5.49585 4.25 5.24976 4.31152 5.03955 4.55762C4.83447 4.79858 4.25 5.38818 4.25 6.58789C4.25 7.78247 5.06006 8.94116 5.17285 9.10523C5.28565 9.26929 6.76733 11.7251 9.03345 12.7812C9.57178 13.0325 9.99219 13.1812 10.3203 13.2939C10.8638 13.4785 11.356 13.4529 11.7456 13.3914C12.1814 13.3196 13.0837 12.8018 13.2734 12.2327C13.458 11.6636 13.4631 11.1765 13.4016 11.074C13.3503 10.9714 13.1965 10.9099 12.9709 10.792C12.7454 10.6689 11.6328 10.0793 11.4277 10.0024C11.2227 9.91528 11.0688 9.8794 10.915 10.1204C10.7664 10.3665 10.3357 10.915 10.2024 11.074C10.0691 11.238 9.94092 11.2585 9.71533 11.1355C9.48462 11.0125 8.75659 10.7561 7.89526 9.92554C7.22363 9.27954 6.76733 8.48486 6.63916 8.23877C6.50586 7.99268 6.62378 7.8645 6.73657 7.74658C6.83911 7.63379 6.96216 7.45947 7.07495 7.31592C7.18774 7.17749 7.22363 7.06983 7.30054 6.91089C7.37744 6.74683 7.34155 6.60327 7.28516 6.48535C7.22363 6.3623 6.77246 5.1626 6.58789 4.67554C6.40332 4.20386 6.21362 4.26538 6.0752 4.26025C5.94702 4.25 5.79321 4.25 5.64453 4.25Z"/>
</svg>

<svg xmlns="http://www.w3.org/2000/svg" viewBox="0 0 18 18"><path d="M8.844.313C4.137.313.313 4.136.313 8.842c0 1.703.548 3.261 1.404 4.595L.251 17.534l4.563-1.287c1.21.661 2.553 1.128 4.03 1.128 4.706 0 8.531-3.825 8.531-8.531 0-4.707-3.825-8.531-8.531-8.531zm0 1.312a7.21 7.21 0 017.219 7.219A7.21 7.21 0 015.11 15.017l-.24-.15-2.528.708.82-2.276-.2-.277a7.21 7.21 0 015.88-11.397zm-3.2 2.625c-.148 0-.394.062-.604.308-.206.24-.79.83-.79 2.03 0 1.194.81 2.353.923 2.517.113.164 1.594 2.62 3.86 3.676.539.252.96.4 1.287.513a2.916 2.916 0 001.426.097c.435-.071 1.338-.59 1.527-1.158.185-.57.19-1.056.129-1.159-.052-.103-.205-.164-.431-.282-.226-.123-1.338-.713-1.543-.79-.205-.087-.36-.123-.513.118-.149.247-.58.795-.713.954-.133.164-.261.184-.487.062-.23-.123-.958-.38-1.82-1.21A7.128 7.128 0 016.64 8.239c-.133-.246-.015-.375.098-.492.102-.113.225-.288.338-.431.113-.139.149-.246.226-.405a.471.471 0 00-.016-.426c-.061-.123-.513-1.322-.697-1.81-.185-.471-.374-.41-.513-.415-.128-.01-.282-.01-.43-.01z"/></svg>
